resources/svg/car.svg

<svg width="15" height="15" viewBox="0 0 15 15" fill="none" xmlns="http://www.w3.org/2000/svg">
<path fill-rule="evenodd" clip-rule="evenodd" d="M2.19729 2.69839C2.82994 1.64467 3.96894 1 5.19799 1H9.80201C11.0311 1 12.1701 1.64467 12.8027 2.69839L15 6.35813V12.5C15 13.3284 14.3284 14 13.5 14H12.5C11.6716 14 11 13.3284 11 12.5V12H4V12.5C4 13.3284 3.32843 14 2.5 14H1.5C0.671573 14 0 13.3284 0 12.5V6.35813L2.19729 2.69839ZM12 7H3V6H12V7ZM2 10H5V9H2V10ZM13 9H10V10H13V9Z" fill="black"/>
</svg>

<svg viewBox="0 0 15 15" fill="none" xmlns="http://www.w3.org/2000/svg" fill="currentColor"><path fill-rule="evenodd" clip-rule="evenodd" d="M2.197 2.698A3.5 3.5 0 015.198 1h4.604a3.5 3.5 0 013 1.698L15 6.358V12.5a1.5 1.5 0 01-1.5 1.5h-1a1.5 1.5 0 01-1.5-1.5V12H4v.5A1.5 1.5 0 012.5 14h-1A1.5 1.5 0 010 12.5V6.358l2.197-3.66zM12 7H3V6h9v1zM2 10h3V9H2v1zm11-1h-3v1h3V9z" fill="currentColor"/></svg>
